src/status/22/liferea-unread.svg

<?xml version="1.0" encoding="UTF-8"?>
<svg xmlns="http://www.w3.org/2000/svg" xmlns:xlink="http://www.w3.org/1999/xlink" width="22px" height="22px" viewBox="0 0 22 22" version="1.1">
<g id="surface1">
<path style=" stroke:none;fill-rule:nonzero;fill:rgb(18.039216%,20.392157%,25.098041%);fill-opacity:1;" d="M 3.910156 15.507812 C 2.492188 15.507812 1.335938 16.664062 1.335938 18.074219 C 1.335938 19.492188 2.492188 20.636719 3.910156 20.636719 C 5.335938 20.636719 6.488281 19.492188 6.488281 18.074219 C 6.488281 16.664062 5.335938 15.507812 3.910156 15.507812 Z M 1.339844 7.902344 L 1.339844 11.605469 C 3.753906 11.605469 6.019531 12.550781 7.726562 14.257812 C 9.433594 15.964844 10.375 18.242188 10.375 20.664062 L 14.09375 20.664062 C 14.09375 13.628906 8.371094 7.902344 1.339844 7.902344 Z M 1.34375 1.335938 L 1.34375 5.042969 C 9.945312 5.042969 16.949219 12.050781 16.949219 20.660156 L 20.664062 20.660156 C 20.664062 10.007812 11.996094 1.335938 1.34375 1.335938 Z M 1.34375 1.335938 "/>
<path style=" stroke:none;fill-rule:nonzero;fill:rgb(50.588238%,63.137257%,75.686276%);fill-opacity:1;" d="M 20.667969 15.410156 C 20.667969 18.296875 18.683594 20.636719 16.238281 20.636719 C 13.792969 20.636719 11.808594 18.296875 11.808594 15.410156 C 11.808594 12.523438 13.792969 10.179688 16.238281 10.179688 C 18.683594 10.179688 20.667969 12.523438 20.667969 15.410156 Z M 20.667969 15.410156 "/>
</g>
</svg>

<svg width="22px" height="22px" version="1.1" viewBox="0 0 22 22" xmlns="http://www.w3.org/2000/svg">
 <g>
  <path d="m3.9102 15.508c-1.418 0-2.5742 1.1562-2.5742 2.5664 0 1.418 1.1562 2.5625 2.5742 2.5625 1.4258 0 2.5781-1.1445 2.5781-2.5625 0-1.4102-1.1523-2.5664-2.5781-2.5664zm-2.5703-7.6055v3.7031c2.4141 0 4.6797 0.94531 6.3867 2.6523 1.707 1.707 2.6484 3.9844 2.6484 6.4062h3.7188c0-7.0352-5.7227-12.762-12.754-12.762zm0.003906-6.5664v3.707c8.6016 0 15.605 7.0078 15.605 15.617h3.7148c0-10.652-8.668-19.324-19.32-19.324z" fill="#2e3440"/>
  <path d="m20.668 15.41c0 2.8867-1.9844 5.2266-4.4297 5.2266-2.4453 0-4.4297-2.3398-4.4297-5.2266 0-2.8867 1.9844-5.2305 4.4297-5.2305 2.4453 0 4.4297 2.3438 4.4297 5.2305z" fill="#81a1c1"/>
 </g>
</svg>
